src/assets/icons/letters,simple,sans-j.svg

<svg width="48" height="48" viewBox="0 0 48 48" fill="none" xmlns="http://www.w3.org/2000/svg">
<rect opacity="0.2" x="5" y="5" width="38" height="38" rx="4" fill="black"/>
<path d="M26.1467 13.4545V29.1747C26.1357 31.3434 25.1669 32.4883 23.4055 32.4883C21.7433 32.4883 20.6644 31.4535 20.6314 29.6591H15.8867C15.8647 34.1616 19.0792 36.3082 23.1634 36.3082C27.7319 36.3082 30.8473 33.5451 30.8583 29.1747V13.4545H26.1467Z" fill="black"/>
</svg>

<svg xmlns="http://www.w3.org/2000/svg" width="48" height="48" fill="none" viewBox="0 0 48 48">
  <rect width="38" height="38" x="5" y="5" fill="#000" opacity=".2" rx="4"/>
  <path fill="#000" d="M26.147 13.454v15.72c-.011 2.17-.98 3.314-2.741 3.314-1.663 0-2.742-1.035-2.775-2.829h-4.744c-.022 4.503 3.192 6.65 7.276 6.65 4.569 0 7.684-2.764 7.695-7.134v-15.72h-4.711z"/>
</svg>
